src/assets/img/rain.svg

<svg height="200" viewBox="0 0 200 200" width="200" xmlns="http://www.w3.org/2000/svg" xmlns:xlink="http://www.w3.org/1999/xlink"><linearGradient id="a" x1="50%" x2="50%" y1="0%" y2="100%"><stop offset="0" stop-color="#a9d9ff"/><stop offset="1" stop-color="#7ac5ff"/></linearGradient><g fill="none" fill-rule="evenodd"><path d="m47.2899719 79.0385582c2.4546346-20.8576454 20.192704-37.0385582 41.7100281-37.0385582 14.835057 0 27.873693 7.6913914 35.345759 19.3040253 3.629484-.852907 7.413201-1.3040253 11.301968-1.3040253 27.256508 0 49.352273 22.1619049 49.352273 49.5 0 27.338095-22.095765 49.5-49.352273 49.5h-82.5795452c-22.1290458 0-40.0681818-17.992834-40.0681818-40.188119 0-20.2272027 14.898815-36.9641848 34.2899719-39.7733228z" fill="url(#a)" transform="translate(0 -28)"/><g fill="#a8d9ff" fill-rule="nonzero"><path d="m44.3625238 157.26602-7.6239562 15.247912c-1.2349463 2.469893-.2338245 5.473258 2.236068 6.708204 2.4698924 1.234946 5.4732576.233824 6.7082039-2.236068l7.6239563-15.247913c1.2349462-2.469892.2338245-5.473257-2.236068-6.708203-2.4698925-1.234947-5.4732577-.233825-6.708204 2.236068z"/><path d="m94.8646113 157.26602-7.6239562 15.247912c-1.2349463 2.469893-.2338245 5.473258 2.2360679 6.708204 2.4698925 1.234946 5.4732577.233824 6.708204-2.236068l7.623956-15.247913c1.234946-2.469892.233825-5.473257-2.236068-6.708203-2.4698922-1.234947-5.4732574-.233825-6.7082037 2.236068z"/><path d="m74.7888807 146.052841-7.6239563 15.247913c-1.2349462 2.469892-.2338245 5.473257 2.236068 6.708204 2.4698925 1.234946 5.4732577.233824 6.708204-2.236068l7.6239562-15.247913c1.2349463-2.469892.2338245-5.473258-2.236068-6.708204-2.4698924-1.234946-5.4732577-.233824-6.7082039 2.236068z"/><path d="m125.290968 146.052841-7.623956 15.247913c-1.234946 2.469892-.233825 5.473257 2.236068 6.708204 2.469892 1.234946 5.473258.233824 6.708204-2.236068l7.623956-15.247913c1.234946-2.469892.233825-5.473258-2.236068-6.708204-2.469892-1.234946-5.473258-.233824-6.708204 2.236068z"/><path d="m89.1518203 115.763932-7.6239563 15.247913c-1.2349462 2.469892-.2338245 5.473257 2.236068 6.708203 2.4698925 1.234947 5.4732577.233825 6.708204-2.236068l7.6239562-15.247912c1.2349463-2.469893.2338245-5.473258-2.236068-6.708204s-5.4732577-.233824-6.7082039 2.236068z"/><path d="m140.15182 115.763932-7.623956 15.247913c-1.234946 2.469892-.233824 5.473257 2.236068 6.708203 2.469893 1.234947 5.473258.233825 6.708204-2.236068l7.623956-15.247912c1.234946-2.469893.233825-5.473258-2.236068-6.708204-2.469892-1.234946-5.473257-.233824-6.708204 2.236068z"/><path d="m109.15182 126.763932-7.623956 15.247913c-1.234946 2.469892-.233824 5.473257 2.236068 6.708203 2.469893 1.234947 5.473258.233825 6.708204-2.236068l7.623956-15.247912c1.234946-2.469893.233825-5.473258-2.236068-6.708204-2.469892-1.234946-5.473257-.233824-6.708204 2.236068z"/><path d="m59.1518203 126.763932-7.6239563 15.247913c-1.2349462 2.469892-.2338245 5.473257 2.236068 6.708203 2.4698925 1.234947 5.4732577.233825 6.708204-2.236068l7.6239562-15.247912c1.2349463-2.469893.2338245-5.473258-2.236068-6.708204s-5.4732577-.233824-6.7082039 2.236068z"/></g></g></svg>

<?xml version="1.0" encoding="UTF-8"?>
<svg width="200px" height="200px" viewBox="0 0 200 200" version="1.1" xmlns="http://www.w3.org/2000/svg" xmlns:xlink="http://www.w3.org/1999/xlink">
    <!-- Generator: Sketch 52.1 (67048) - http://www.bohemiancoding.com/sketch -->
    <title>rain</title>
    <desc>Created with Sketch.</desc>
    <defs>
        <linearGradient x1="50%" y1="0%" x2="50%" y2="100%" id="linearGradient-1">
            <stop stop-color="#A9D9FF" offset="0%"></stop>
            <stop stop-color="#7AC5FF" offset="100%"></stop>
        </linearGradient>
    </defs>
    <g id="rain" stroke="none" stroke-width="1" fill="none" fill-rule="evenodd">
        <g id="cloud" transform="translate(0.000000, -28.000000)" fill="url(#linearGradient-1)">
            <path d="M47.2899719,79.0385582 C49.7446065,58.1809128 67.4826759,42 89,42 C103.835057,42 116.873693,49.6913914 124.345759,61.3040253 C127.975243,60.4511183 131.75896,60 135.647727,60 C162.904235,60 185,82.1619049 185,109.5 C185,136.838095 162.904235,159 135.647727,159 L53.0681818,159 C30.939136,159 13,141.007166 13,118.811881 C13,98.5846783 27.898815,81.8476962 47.2899719,79.0385582 Z" id="Combined-Shape"></path>
        </g>
        <path d="M44.3625238,157.26602 L36.7385676,172.513932 C35.5036213,174.983825 36.5047431,177.98719 38.9746356,179.222136 C41.444528,180.457082 44.4478932,179.45596 45.6828395,176.986068 L53.3067958,161.738155 C54.541742,159.268263 53.5406203,156.264898 51.0707278,155.029952 C48.6008353,153.795005 45.5974701,154.796127 44.3625238,157.26602 Z" id="Path-2-Copy" fill="#A8D9FF" fill-rule="nonzero"></path>
        <path d="M94.8646113,157.26602 L87.2406551,172.513932 C86.0057088,174.983825 87.0068306,177.98719 89.476723,179.222136 C91.9466155,180.457082 94.9499807,179.45596 96.184927,176.986068 L103.808883,161.738155 C105.043829,159.268263 104.042708,156.264898 101.572815,155.029952 C99.1029228,153.795005 96.0995576,154.796127 94.8646113,157.26602 Z" id="Path-2-Copy-3" fill="#A8D9FF" fill-rule="nonzero"></path>
        <path d="M74.7888807,146.052841 L67.1649244,161.300754 C65.9299782,163.770646 66.9310999,166.774011 69.4009924,168.008958 C71.8708849,169.243904 74.8742501,168.242782 76.1091964,165.77289 L83.7331526,150.524977 C84.9680989,148.055085 83.9669771,145.051719 81.4970846,143.816773 C79.0271922,142.581827 76.0238269,143.582949 74.7888807,146.052841 Z" id="Path-2-Copy-2" fill="#A8D9FF" fill-rule="nonzero"></path>
        <path d="M125.290968,146.052841 L117.667012,161.300754 C116.432066,163.770646 117.433187,166.774011 119.90308,168.008958 C122.372972,169.243904 125.376338,168.242782 126.611284,165.77289 L134.23524,150.524977 C135.470186,148.055085 134.469065,145.051719 131.999172,143.816773 C129.52928,142.581827 126.525914,143.582949 125.290968,146.052841 Z" id="Path-2-Copy-4" fill="#A8D9FF" fill-rule="nonzero"></path>
        <path d="M89.1518203,115.763932 L81.527864,131.011845 C80.2929178,133.481737 81.2940395,136.485102 83.763932,137.720048 C86.2338245,138.954995 89.2371897,137.953873 90.472136,135.48398 L98.0960922,120.236068 C99.3310385,117.766175 98.3299167,114.76281 95.8600242,113.527864 C93.3901317,112.292918 90.3867665,113.29404 89.1518203,115.763932 Z" id="Path-2-Copy" fill="#A8D9FF" fill-rule="nonzero"></path>
        <path d="M140.15182,115.763932 L132.527864,131.011845 C131.292918,133.481737 132.29404,136.485102 134.763932,137.720048 C137.233825,138.954995 140.23719,137.953873 141.472136,135.48398 L149.096092,120.236068 C150.331038,117.766175 149.329917,114.76281 146.860024,113.527864 C144.390132,112.292918 141.386767,113.29404 140.15182,115.763932 Z" id="Path-2-Copy-5" fill="#A8D9FF" fill-rule="nonzero"></path>
        <path d="M109.15182,126.763932 L101.527864,142.011845 C100.292918,144.481737 101.29404,147.485102 103.763932,148.720048 C106.233825,149.954995 109.23719,148.953873 110.472136,146.48398 L118.096092,131.236068 C119.331038,128.766175 118.329917,125.76281 115.860024,124.527864 C113.390132,123.292918 110.386767,124.29404 109.15182,126.763932 Z" id="Path-2-Copy" fill="#A8D9FF" fill-rule="nonzero"></path>
        <path d="M59.1518203,126.763932 L51.527864,142.011845 C50.2929178,144.481737 51.2940395,147.485102 53.763932,148.720048 C56.2338245,149.954995 59.2371897,148.953873 60.472136,146.48398 L68.0960922,131.236068 C69.3310385,128.766175 68.3299167,125.76281 65.8600242,124.527864 C63.3901317,123.292918 60.3867665,124.29404 59.1518203,126.763932 Z" id="Path-2" fill="#A8D9FF" fill-rule="nonzero"></path>
    </g>
</svg>
